src/assets/phone-call.svg

<svg width="16" height="16" viewBox="0 0 16 16" fill="none" xmlns="http://www.w3.org/2000/svg">
<g clip-path="url(#clip0_1_272)">
<path d="M9.4668 10.8407C7.52572 10.0188 5.98217 8.47164 5.1648 6.52867L7.43146 4.258L3.25813 0.0813333L1.14413 2.19467C0.777464 2.56343 0.487562 3.00124 0.291196 3.48277C0.0948312 3.9643 -0.00409881 4.47999 0.000130068 5C0.000130068 9.832 6.16813 16 11.0001 16C11.5201 16.0045 12.0358 15.9058 12.5172 15.7094C12.9987 15.513 13.4364 15.2229 13.8048 14.856L15.9188 12.742L11.7421 8.56533L9.4668 10.8407ZM12.8615 13.9133C12.6166 14.156 12.326 14.3476 12.0065 14.4769C11.6869 14.6063 11.3448 14.6708 11.0001 14.6667C6.8448 14.6667 1.33346 9.15533 1.33346 5C1.32954 4.65522 1.39411 4.31309 1.52342 3.99346C1.65274 3.67383 1.84423 3.38305 2.0868 3.138L3.25813 1.96667L5.54946 4.258L3.5928 6.21467L3.75613 6.624C4.23696 7.91021 4.98864 9.07804 5.96023 10.0484C6.93182 11.0187 8.10063 11.7688 9.38746 12.248L9.79146 12.402L11.7421 10.4507L14.0335 12.742L12.8615 13.9133ZM9.33346 1.33333V0C11.101 0.00194106 12.7955 0.704943 14.0454 1.95477C15.2952 3.20459 15.9982 4.89915 16.0001 6.66667H14.6668C14.6652 5.25267 14.1028 3.89703 13.1029 2.89718C12.1031 1.89733 10.7475 1.33492 9.33346 1.33333ZM9.33346 4V2.66667C10.394 2.66773 11.4108 3.08949 12.1607 3.83941C12.9106 4.58933 13.3324 5.60613 13.3335 6.66667H12.0001C12.0001 5.95942 11.7192 5.28115 11.2191 4.78105C10.719 4.28095 10.0407 4 9.33346 4Z" fill="#7F858D"/>
</g>
<defs>
<clipPath id="clip0_1_272">
<rect width="16" height="16" fill="white"/>
</clipPath>
</defs>
</svg>

<svg width="16" height="16" fill="none" xmlns="http://www.w3.org/2000/svg">
  <g clip-path="url(#prefix__clip0_1_272)">
    <path
      d="M9.467 10.84A8.089 8.089 0 015.165 6.53L7.43 4.258 3.258.081 1.144 2.195A3.933 3.933 0 000 5c0 4.832 6.168 11 11 11a3.926 3.926 0 002.805-1.144l2.114-2.114-4.177-4.177-2.275 2.276zm3.394 3.073a2.6 2.6 0 01-1.86.754c-4.156 0-9.668-5.512-9.668-9.667a2.605 2.605 0 01.754-1.862l1.171-1.171L5.55 4.258 3.593 6.215l.163.409a9.582 9.582 0 005.631 5.624l.404.154 1.951-1.951 2.291 2.291-1.171 1.171zM9.333 1.333V0A6.674 6.674 0 0116 6.667h-1.333a5.34 5.34 0 00-5.334-5.334zm0 2.667V2.667a4.004 4.004 0 014 4H12A2.667 2.667 0 009.333 4z"
      fill="currentColor" />
  </g>
</svg>
